assets/icons/24px/outline/tabcells-add-24px.svg

<svg width="24" height="24" viewBox="0 0 24 24" fill="none" xmlns="http://www.w3.org/2000/svg">
<path d="M12.9 19H7C5.11438 19 4.17157 19 3.58579 18.4142C3 17.8284 3 16.8856 3 15V9C3 7.11438 3 6.17157 3.58579 5.58579C4.17157 5 5.11438 5 7 5H17C18.8856 5 19.8284 5 20.4142 5.58579C21 6.17157 21 7.11438 21 9V11" stroke="white" stroke-width="2" stroke-linecap="round" stroke-linejoin="round"/>
<path d="M18 13V19M21 16H18H15" stroke="white" stroke-width="2" stroke-linecap="round"/>
<path d="M12.2692 5C12.2692 4.72386 12.0454 4.5 11.7692 4.5C11.4931 4.5 11.2692 4.72386 11.2692 5H12.2692ZM11.2692 19C11.2692 19.2761 11.4931 19.5 11.7692 19.5C12.0454 19.5 12.2692 19.2761 12.2692 19H11.2692ZM13.6154 14.5C13.8915 14.5 14.1154 14.2761 14.1154 14C14.1154 13.7239 13.8915 13.5 13.6154 13.5V14.5ZM3 13.5C2.72386 13.5 2.5 13.7239 2.5 14C2.5 14.2761 2.72386 14.5 3 14.5V13.5ZM21 10.5C21.2761 10.5 21.5 10.2761 21.5 10C21.5 9.72386 21.2761 9.5 21 9.5V10.5ZM3 9.5C2.72386 9.5 2.5 9.72386 2.5 10C2.5 10.2761 2.72386 10.5 3 10.5V9.5ZM11.2692 5V19H12.2692V5H11.2692ZM13.6154 13.5H3V14.5H13.6154V13.5ZM21 9.5H3V10.5H21V9.5Z" fill="white"/>
</svg>

<svg width="24" height="24" fill="none" xmlns="http://www.w3.org/2000/svg"><path d="M12.9 19H7c-1.886 0-2.828 0-3.414-.586C3 17.828 3 16.886 3 15V9c0-1.886 0-2.828.586-3.414C4.172 5 5.114 5 7 5h10c1.886 0 2.828 0 3.414.586C21 6.172 21 7.114 21 9v2" stroke="#fff" stroke-width="2" stroke-linecap="round" stroke-linejoin="round"/><path d="M18 13v6m3-3h-6" stroke="#fff" stroke-width="2" stroke-linecap="round"/><path d="M12.27 5a.5.5 0 1 0-1 0h1zm-1 14a.5.5 0 0 0 1 0h-1zm2.345-4.5a.5.5 0 0 0 0-1v1zM3 13.5a.5.5 0 0 0 0 1v-1zm18-3a.5.5 0 0 0 0-1v1zm-18-1a.5.5 0 0 0 0 1v-1zM11.27 5v14h1V5h-1zm2.345 8.5H3v1h10.615v-1zM21 9.5H3v1h18v-1z" fill="#fff"/></svg>
